src/16/mimetypes/message-partial.svg

<svg width="16" xmlns="http://www.w3.org/2000/svg" height="16" viewBox="0 0 16 16">
 <path fill="#f62459" color="#000000" d="m2 3v10h5.9v-1h-4.9v-.063l3.906-3.344.75.75.244.266v-1.396l-.213-.213h-1.578l-3.109 2.656v-5.969l2.328 2.328.344-1.031-1.984-1.984h2.646l.332-1h-3.979zm6 0v1h4.313l-1.617 1.617-.688 2.063 2.992-2.992v5.969l-3.102-2.65-.332.994 3.434 2.938v.063h-4.434l-.332 1h5.766v-10h-.688z"/>
</svg>

<svg width="16" xmlns="http://www.w3.org/2000/svg" height="16"><path fill="#f62459" color="#000" d="M2 3v10h5.9v-1H3v-.063l3.906-3.344.75.75.244.266V8.213L7.687 8H6.109L3 10.656V4.687l2.328 2.328.344-1.031L3.688 4h2.646l.332-1H2.687zm6 0v1h4.313l-1.617 1.617-.688 2.063L13 4.688v5.969l-3.102-2.65-.332.994L13 11.939v.063H8.566l-.332 1H14v-10h-.688z"/></svg>
